X:1
T:Title
%%score { ( 1 3 ) | ( 2 4 ) }
L:1/8
M:3/4
K:G
V:1 treble nm="Grand Piano"
V:3 treble 
V:2 bass 
V:4 bass 
V:1
 z2 z2[Q:1/4=100] B>_B | B3 G (3GA[DGB] | [EGd]2 [EGc]2 B>B | B3 A G>B |[M:2/4] [FA]4 | %5
[M:1/4] B>_B |[M:3/4] B3 G (3GA[DGB] | [EGc]2 [Ge]2 [Gd]>[Gd] | [Gd]3 G B>A |[M:2/4] [B,G]4 | %10
[M:4/4] z2 d6 | z2 E6 | z2 c6 | z2 d6 | z2 G6 | z2 c6 | %16
 [Ge]>[Ge] z2 G,B B2[Q:1/4=99][Q:1/4=97][Q:1/4=96][Q:1/4=94][Q:1/4=93][Q:1/4=91][Q:1/4=90][Q:1/4=88][Q:1/4=87][Q:1/4=85][Q:1/4=84][Q:1/4=82] | %17
[M:3/4] z2 G4-[Q:1/4=81][Q:1/4=79][Q:1/4=78][Q:1/4=76] | G2 z2 z2 |] %19
V:2
 z2 z2 [G,D]>[G,^C] | [G,D]3 [G,B,D] (3[G,-B,D-][G,CD]G, | C,2 C,2[K:treble] [G,DG]>[G,DG] | %3
 [G,DG]3 [G,CD] [G,B,D]>[G,DG] |[M:2/4][K:bass] [D,D]4 |[M:1/4] [G,D]>[G,^C] | %6
[M:3/4] [G,D]3 [G,B,D] (3[G,-B,D-][G,CD]G, | C,2 [C,C]2 [D,B,]>[D,B,] | %8
 [D,B,]3 [D,B,D] [D,G,D]>[D,F,C] |[M:2/4] [G,,G,]4 |[M:4/4] z4 [G,B,]>[G,B,] [G,B,][G,D] | %11
 (3[G,,G,][G,,G,][G,,G,] [C,G,C]>[C,G,] (3[C,G,][C,G,][C,G,] [C,G,]2 | z4 [D,D]>[D,D] [D,D]>[D,D] | %13
 [D,D]>[D,A,][K:treble] [G,B,G]>[G,B,] [G,B,]>[G,B,] [G,B,]2 | %14
 z4[K:bass] [G,B,]>[G,B,] [G,B,]>[G,B,D] | (3[G,-B,D-][G,CD]G, C,2 C,>C, C,2 | %16
 [C,C]>[C,C] [D,B,]2 D,D D2 |[M:3/4] [D,F,C]2 z z/ D,/ E,>^D, | D,2 z2 z2 |] %19
V:3
 x6 | x6 | x6 | x6 |[M:2/4] x4 |[M:1/4] x2 |[M:3/4] x6 | x6 | x6 |[M:2/4] x4 | %10
[M:4/4] B>G z2 G>G GB | (3[DB][CA][B,G] z z/ C/ (3CCC C2 | A>B z2 F>F F>[Fd] | %13
 [GB]>[Fc] z z/ G/ G>G G2 | B>A z2 D>D D>G | (3GA[DGB] [EG]2 [EG]>[EG] [EG]2 | z2 [DG]4 z2 | %17
[M:3/4] A2 [G,B,]>B, C>C | B,2 z2 z2 |] %19
V:4
 x6 | x6 | x4[K:treble] x2 | x6 |[M:2/4][K:bass] x4 |[M:1/4] x2 |[M:3/4] x6 | x6 | x6 |[M:2/4] x4 | %10
[M:4/4] x8 | x8 | x8 | x2[K:treble] x6 | x4[K:bass] x4 | x8 | z4 z [D,G,]3 |[M:3/4] z2 G,,4- | %18
 G,,2 z2 z2 |] %19

